X: 304
P: Longways for as many as will
M: 6/8
L: 1/8
K: G
d |\
d |\
dBc d>ed | c2B c3 | cAB c>dc | B2A B2d |\
g2d g2d | g3- g>fe | dcB A2G | G3- G2 |]

